dist/img/scheme.svg

<svg width="610" height="500" viewBox="0 0 610 500" xmlns="http://www.w3.org/2000/svg"><title>891AB04F-C165-4D96-B69C-90B832780E89</title><g fill="#FFF" fill-rule="evenodd"><path d="M211 100v127H0V100h211zM2 102v123h207V102H2zm208-6v-2h-42v2h42zm-33.55-3.558a16.278 16.278 0 0 1 1.888-3.886C180.67 85.07 184.132 83 189.05 83c4.916 0 8.358 2.068 10.659 5.551a16.111 16.111 0 0 1 1.855 3.884c.15.463.425 1.493.436 1.565h2a15.43 15.43 0 0 0-.535-2.185 18.088 18.088 0 0 0-2.087-4.366C198.725 83.432 194.676 81 189.05 81c-5.625 0-9.69 2.43-12.374 6.444a18.255 18.255 0 0 0-2.123 4.364A15.56 15.56 0 0 0 174 94h2a29.4 29.4 0 0 1 .45-1.558zM179 58v2h20v-2h-20zm9 23h2V60h-2v21z"/><path d="M568 310h40v1h-40v20h-2v-20H401v-1h165v-40h2v40zm-9.5 33l-8.5-12h34l-17 24-7.792-11H536v-1h22.5zm9.815 114.5L580 436h-25l11.685 21.5L555 479h25l-11.685-21.5zM315.5 413.97L294 402v25l21.5-11.4L337 427v-25l-21.5 11.97zM43.315 268.5L55 247H30l11.685 21.5L30 290h25l-11.685-21.5zM84.5 352.97L63 341v25l21.5-11.4L106 366v-25l-21.5 11.97zm0 61L63 402v25l21.5-11.4L106 427v-25l-21.5 11.97zM568.315 226.5L580 205h-25l11.685 21.5L555 248h25l-11.685-21.5zm-.317-103.5l-1 1h.085v39h-1v-38.086l-25.792 25.793 6.864 6.864-1.414 1.414-15.556-15.556 1.414-1.414 7.278 7.278L565.169 123H557v-2h20v2h-9.002zm.317-64.5L580 37h-25l11.685 21.5L555 80h25l-11.685-21.5zm-525 0L55 37H30l11.685 21.5L30 80h25L43.315 58.5zM316.05 16L294 0v34l23.153-16H568v-2H316.05zM296 4l18.353 13.317L296 30V4zm-2 14v-2H42v2h252zM42 37h2V18h-2v19zm524 0h2V18h-2v19zM42.5 56L52 39H33l9.5 17zm0 5L52 78H33l9.5-17zm525-5l9.5-17h-19l9.5 17zm0 5l9.5 17h-19l9.5-17zM557 163v2h20v-2h-20zm9-42h2V80h-2v41zm1.5 103l9.5-17h-19l9.5 17zm0 5l9.5 17h-19l9.5-17zm-1.5-24h2v-40h-2v40zm0 55h2v-12h-2v12zM65 405.55l16.7 9.22-16.7 8.78v-18zm39 0l-16.7 9.22 16.7 8.78v-18zm-39-61l16.7 9.22-16.7 8.78v-18zm39 0l-16.7 9.22 16.7 8.78v-18zM63 354v-2H44v2h19zm0 62v-2H44v2h19zm-21 0h2V290h-2v126zm.5-150l9.5-17H33l9.5 17zm0 5l9.5 17H33l9.5-17zm-.5-24h2v-41h-2v41zm18-41H26l17-24 17 24zm-30.147-2h26.279l-13.14-18.552L29.851 204zM168 415.5c0-11.874 9.626-21.5 21.5-21.5s21.5 9.626 21.5 21.5-9.626 21.5-21.5 21.5-21.5-9.626-21.5-21.5zm41 0c0-10.77-8.73-19.5-19.5-19.5s-19.5 8.73-19.5 19.5 8.73 19.5 19.5 19.5 19.5-8.73 19.5-19.5zM197 398l-26 17 26 18v-35zm-29 18v-2h-62v2h62zm126 0v-2h-83v2h83zm-126-62v-2h-62v2h62zm0-.5c0-11.874 9.626-21.5 21.5-21.5s21.5 9.626 21.5 21.5-9.626 21.5-21.5 21.5-21.5-9.626-21.5-21.5zm41 0c0-10.77-8.73-19.5-19.5-19.5s-19.5 8.73-19.5 19.5 8.73 19.5 19.5 19.5 19.5-8.73 19.5-19.5zM183.744 364v-7.684l2.379-2.622L194.37 364h3.506l-9.849-12.258L197.07 342h-3.46l-9.712 10.733h-.153V342H181v22h2.744zM335 405.55l-16.7 9.22 16.7 8.78v-18zM566 416v-2H337v2h229zm0 20h2v-41h-2v41zm1.5 19l9.5-17h-19l9.5 17zm0 5l9.5 17h-19l9.5-17zm-1.5 40h2v-21h-2v21zm1-148.5l13-18.5h-26l13 18.5zM452 321v-1h-21v1h21zm21 42v-1h-21v1h21zm-42 11v-1h-21v1h21zm105-11v-1h-21v1h21zm72-10v-1h-20v1h20zm-156 0v-1h-21v1h21zm53-9v-1h-22v1h22zm94-23v-1h-22v1h22zm-84 0v-1h-21v1h21zm-31 11v-1h-22v1h22zm30 42v-1h-21v1h21zm54 0v-1h-22v1h22z"/><path d="M610 268v127H399V268h211zm-23 0h2v-8h-43v8h2v-6h39v6zm-186 2v123h207V270H401zM60 143H26l16.007-22.599 2.001-.001L60 143zm-30.147-2h26.279l-13.14-18.552L29.851 141zM42 120.4h2V80h-2v40.4z"/></g></svg>

<?xml version="1.0" encoding="UTF-8"?>
<svg width="610px" height="500px" viewBox="0 0 610 500" version="1.1" xmlns="http://www.w3.org/2000/svg" xmlns:xlink="http://www.w3.org/1999/xlink">
    <!-- Generator: Sketch 40.3 (33839) - http://www.bohemiancoding.com/sketch -->
    <title>scheme</title>
    <desc>Created with Sketch.</desc>
    <defs></defs>
    <g id="Page-1" stroke="none" stroke-width="1" fill="none" fill-rule="evenodd">
        <g id="scheme" fill="#FFFFFF">
            <g id="Group">
                <path d="M211,100 L211,227 L0,227 L0,100 L211,100 L211,100 Z M2,102 L2,225 L209,225 L209,102 L2,102 L2,102 Z M210,96 L210,94 L168,94 L168,96 L210,96 L210,96 Z M176.45,92.442 C176.903876,91.0685334 177.538801,89.7616926 178.338,88.556 C180.67,85.07 184.132,83 189.05,83 C193.966,83 197.408,85.068 199.709,88.551 C200.498271,89.7568699 201.122171,91.0631917 201.564,92.435 C201.714,92.898 201.989,93.928 202,94 L204,94 C203.875067,93.2596198 203.696258,92.5293463 203.465,91.815 C202.968028,90.2727584 202.266081,88.8042866 201.378,87.449 C198.725,83.432 194.676,81 189.05,81 C183.425,81 179.36,83.43 176.676,87.444 C175.777267,88.7976998 175.063293,90.2653321 174.553,91.808 C174.315762,92.5242917 174.130941,93.2568914 174,94 L176,94 C176.135646,93.4766277 176.285703,92.9570968 176.45,92.442 L176.45,92.442 Z M179,58 L179,60 L199,60 L199,58 L179,58 L179,58 Z M188,81 L190,81 L190,60 L188,60 L188,81 L188,81 Z" id="Shape"></path>
                <path d="M568,247 L608,247 L608,248 L568,248 L568,268 L566,268 L566,248 L401,248 L401,247 L566,247 L566,207 L568,207 L568,247 L568,247 Z M558.5,280 L550,268 L584,268 L567,292 L559.208,281 L536,281 L536,280 L558.5,280 L558.5,280 Z M568.315,457.5 L580,436 L555,436 L566.685,457.5 L555,479 L580,479 L568.315,457.5 L568.315,457.5 Z M315.5,413.97 L294,402 L294,427 L315.5,415.6 L337,427 L337,402 L315.5,413.97 L315.5,413.97 Z M43.315,268.5 L55,247 L30,247 L41.685,268.5 L30,290 L55,290 L43.315,268.5 L43.315,268.5 Z M84.5,352.97 L63,341 L63,366 L84.5,354.6 L106,366 L106,341 L84.5,352.97 L84.5,352.97 Z M84.5,413.97 L63,402 L63,427 L84.5,415.6 L106,427 L106,402 L84.5,413.97 L84.5,413.97 Z M568.315,373.5 L580,352 L555,352 L566.685,373.5 L555,395 L580,395 L568.315,373.5 L568.315,373.5 Z M567.998,123 L566.998,124 L567.083,124 L567.083,163 L566.083,163 L566.083,124.914 L540.291,150.707 L547.155,157.571 L545.741,158.985 L530.185,143.429 L531.599,142.015 L538.877,149.293 L565.169,123 L557,123 L557,121 L577,121 L577,123 L567.998,123 L567.998,123 Z M568.315,58.5 L580,37 L555,37 L566.685,58.5 L555,80 L580,80 L568.315,58.5 L568.315,58.5 Z M43.315,58.5 L55,37 L30,37 L41.685,58.5 L30,80 L55,80 L43.315,58.5 L43.315,58.5 Z M316.05,16 L294,0 L294,34 L317.153,18 L568,18 L568,16 L316.05,16 L316.05,16 Z M296,4 L314.353,17.317 L296,30 L296,4 L296,4 Z M294,18 L294,16 L42,16 L42,18 L294,18 L294,18 Z M42,37 L44,37 L44,18 L42,18 L42,37 L42,37 Z M566,37 L568,37 L568,18 L566,18 L566,37 L566,37 Z M42.5,56 L52,39 L33,39 L42.5,56 L42.5,56 Z M42.5,61 L52,78 L33,78 L42.5,61 L42.5,61 Z M567.5,56 L577,39 L558,39 L567.5,56 L567.5,56 Z M567.5,61 L577,78 L558,78 L567.5,61 L567.5,61 Z M557,163 L557,165 L577,165 L577,163 L557,163 L557,163 Z M566,121 L568,121 L568,80 L566,80 L566,121 L566,121 Z M567.5,371 L577,354 L558,354 L567.5,371 L567.5,371 Z M567.5,376 L577,393 L558,393 L567.5,376 L567.5,376 Z M566,205 L568,205 L568,165 L566,165 L566,205 L566,205 Z M566,352 L568,352 L568,332 L566,332 L566,352 L566,352 Z M65,405.55 L81.7,414.77 L65,423.55 L65,405.55 L65,405.55 Z M104,405.55 L87.3,414.77 L104,423.55 L104,405.55 L104,405.55 Z M65,344.55 L81.7,353.77 L65,362.55 L65,344.55 L65,344.55 Z M104,344.55 L87.3,353.77 L104,362.55 L104,344.55 L104,344.55 Z M63,354 L63,352 L44,352 L44,354 L63,354 L63,354 Z M63,416 L63,414 L44,414 L44,416 L63,416 L63,416 Z M42,416 L44,416 L44,290 L42,290 L42,416 L42,416 Z M42.5,266 L52,249 L33,249 L42.5,266 L42.5,266 Z M42.5,271 L52,288 L33,288 L42.5,271 L42.5,271 Z M42,247 L44,247 L44,206 L42,206 L42,247 L42,247 Z M60,206 L26,206 L43,182 L60,206 L60,206 Z M29.853,204 L56.132,204 L42.992,185.448 L29.851,204 L29.853,204 Z M168,415.5 C168,403.626 177.626,394 189.5,394 C201.374,394 211,403.626 211,415.5 C211,427.374 201.374,437 189.5,437 C177.626,437 168,427.374 168,415.5 L168,415.5 Z M209,415.5 C209,404.73 200.27,396 189.5,396 C178.73,396 170,404.73 170,415.5 C170,426.27 178.73,435 189.5,435 C200.27,435 209,426.27 209,415.5 L209,415.5 Z M197,398 L171,415 L197,433 L197,398 L197,398 Z M168,416 L168,414 L106,414 L106,416 L168,416 L168,416 Z M294,416 L294,414 L211,414 L211,416 L294,416 L294,416 Z M168,354 L168,352 L106,352 L106,354 L168,354 L168,354 Z M168,353.5 C168,341.626 177.626,332 189.5,332 C201.374,332 211,341.626 211,353.5 C211,365.374 201.374,375 189.5,375 C177.626,375 168,365.374 168,353.5 L168,353.5 Z M209,353.5 C209,342.73 200.27,334 189.5,334 C178.73,334 170,342.73 170,353.5 C170,364.27 178.73,373 189.5,373 C200.27,373 209,364.27 209,353.5 L209,353.5 Z M183.744,364 L183.744,356.316 L186.123,353.694 L194.37,364 L197.876,364 L188.027,351.742 L197.07,342 L193.61,342 L183.898,352.733 L183.745,352.733 L183.745,342 L181,342 L181,364 L183.744,364 L183.744,364 Z M335,405.55 L318.3,414.77 L335,423.55 L335,405.55 L335,405.55 Z M566,416 L566,414 L337,414 L337,416 L566,416 L566,416 Z M566,436 L568,436 L568,395 L566,395 L566,436 L566,436 Z M567.5,455 L577,438 L558,438 L567.5,455 L567.5,455 Z M567.5,460 L577,477 L558,477 L567.5,460 L567.5,460 Z M566,500 L568,500 L568,479 L566,479 L566,500 L566,500 Z M567,288.5 L580,270 L554,270 L567,288.5 L567,288.5 Z M452,258 L452,257 L431,257 L431,258 L452,258 L452,258 Z M473,300 L473,299 L452,299 L452,300 L473,300 L473,300 Z M431,311 L431,310 L410,310 L410,311 L431,311 L431,311 Z M536,300 L536,299 L515,299 L515,300 L536,300 L536,300 Z M608,290 L608,289 L588,289 L588,290 L608,290 L608,290 Z M452,290 L452,289 L431,289 L431,290 L452,290 L452,290 Z M505,281 L505,280 L483,280 L483,281 L505,281 L505,281 Z M599,258 L599,257 L577,257 L577,258 L599,258 L599,258 Z M515,258 L515,257 L494,257 L494,258 L515,258 L515,258 Z M484,269 L484,268 L462,268 L462,269 L484,269 L484,269 Z M514,311 L514,310 L493,310 L493,311 L514,311 L514,311 Z M568,311 L568,310 L546,310 L546,311 L568,311 L568,311 Z" id="Shape"></path>
                <path d="M610,205 L610,332 L399,332 L399,205 L610,205 L610,205 Z M587,205 L589,205 L589,197 L546,197 L546,205 L548,205 L548,199 L587,199 L587,205 L587,205 Z M401,207 L401,330 L608,330 L608,207 L401,207 L401,207 Z M60,143 L26,143 L42.007,120.401 L44.008,120.4 L60,143 L60,143 Z M29.853,141 L56.132,141 L42.992,122.448 L29.851,141 L29.853,141 Z M42,120.4 L44,120.4 L44,80 L42,80 L42,120.4 L42,120.4 Z" id="Shape"></path>
            </g>
        </g>
    </g>
</svg>
